svg/misc/user-waiter-male.svg

<svg width="512" height="512" viewBox="0 0 512 512" version="1.1" xmlns="http://www.w3.org/2000/svg"><path fill="currentColor" d="M512,512.145l-512,0c0,-94.957 2.909,-149.218 8.727,-162.783c2.909,-3.603 7.091,-7.154 12.546,-10.651c5.454,-3.497 12.606,-6.941 21.454,-10.333c8.849,-3.391 16.909,-6.305 24.182,-8.743c7.273,-2.437 17.212,-5.67 29.818,-9.697c12.606,-4.027 22.546,-7.207 29.818,-9.538c6.303,-2.12 12.425,-4.557 18.364,-7.313c5.939,-2.755 9.758,-4.451 11.455,-5.087c1.697,1.908 3.272,11.817 4.727,29.727c1.454,17.911 3.515,38.312 6.182,61.203c2.666,22.891 5.939,38.06 9.818,49.505c1.697,5.087 5.212,9.326 10.545,12.718c5.334,3.391 9.94,5.511 13.819,6.358c3.256,0.712 6,0.675 8.232,0.645c0.426,-0.006 0.833,-0.011 1.222,-0.011l92.364,0c0.389,0 0.796,0.005 1.222,0.011c2.232,0.03 4.976,0.067 8.232,-0.645c3.879,-0.847 8.485,-2.967 13.818,-6.358c5.334,-3.392 8.849,-7.631 10.546,-12.718c3.879,-11.445 6.97,-26.614 9.273,-49.505c2.303,-22.891 4,-43.292 5.091,-61.203c1.09,-17.91 2.484,-27.819 4.181,-29.727c1.697,0.636 5.516,2.332 11.455,5.087c5.939,2.756 12.061,5.193 18.364,7.313c7.272,2.331 17.212,5.511 29.818,9.538c12.606,4.027 22.545,7.26 29.818,9.697c7.273,2.438 15.333,5.352 24.182,8.743c8.848,3.392 16,6.836 21.454,10.333c5.455,3.497 9.637,7.048 12.546,10.651c3.151,8.478 5.394,31.793 6.727,69.946c1.332,38.135 1.999,69.069 2,92.837Zm-240,-96.145c0,8.837 -7.163,16 -16,16c-8.837,0 -16,-7.163 -16,-16c0,-8.837 7.163,-16 16,-16c8.837,0 16,7.163 16,16Zm-16,-32c8.837,0 16,-7.163 16,-16c0,-8.837 -7.163,-16 -16,-16c-8.837,0 -16,7.163 -16,16c0,8.837 7.163,16 16,16Zm-64,-112l64,16l64,-16l0,64l-64,-14l-64,14l0,-64Zm64,-16c-70.692,0 -128,-57.308 -128,-128c0,-70.692 57.308,-128 128,-128c70.692,0 128,57.308 128,128c0,70.692 -57.308,128 -128,128Zm108.8,-127.2c-10.4,2.133 -25.267,1.133 -44.6,-3c-19.333,-4.134 -35.667,-9 -49,-14.6c-9.067,-4 -17.733,-8.6 -26,-13.8c-8.267,-5.2 -17.733,-11.734 -28.4,-19.6c-10.667,-7.867 -18.933,-13.667 -24.8,-17.4c4.267,31.733 -10.667,54.4 -44.8,68c0.267,30.133 11,55.733 32.2,76.8c21.2,21.066 46.733,31.6 76.6,31.6c29.867,0 55.4,-10.534 76.6,-31.6c21.2,-21.067 31.933,-46.533 32.2,-76.4Z"></path></svg>

<svg width="512" height="512" viewBox="0 0 512 512" fill="none" xmlns="http://www.w3.org/2000/svg">
<g clip-path="url(#clip0)">
<path fill-rule="evenodd" clip-rule="evenodd" d="M256 256C326.692 256 384 198.692 384 128C384 57.3076 326.692 0 256 0C185.308 0 128 57.3076 128 128C128 198.692 185.308 256 256 256ZM364.8 128.8C354.4 130.933 339.533 129.933 320.2 125.8C300.867 121.666 284.533 116.8 271.2 111.2C262.133 107.2 253.467 102.6 245.2 97.3998C236.933 92.1998 227.467 85.6665 216.8 77.7998C206.133 69.9332 197.867 64.1332 192 60.3998C196.267 92.1332 181.333 114.8 147.2 128.4C147.467 158.533 158.2 184.133 179.4 205.2C200.6 226.266 226.133 236.8 256 236.8C285.867 236.8 311.4 226.266 332.6 205.2C353.8 184.133 364.533 158.667 364.8 128.8Z" fill="black"/>
<path d="M192 272L256 288L320 272V336L256 322L192 336V272Z" fill="black"/>
<path d="M256 384C264.837 384 272 376.837 272 368C272 359.163 264.837 352 256 352C247.163 352 240 359.163 240 368C240 376.837 247.163 384 256 384Z" fill="black"/>
<path d="M272 416C272 424.837 264.837 432 256 432C247.163 432 240 424.837 240 416C240 407.163 247.163 400 256 400C264.837 400 272 407.163 272 416Z" fill="black"/>
<path d="M210.909 448.145H303.273C303.662 448.145 304.069 448.15 304.495 448.156C306.727 448.186 309.471 448.223 312.727 447.511C316.606 446.664 321.212 444.544 326.545 441.153C331.879 437.761 335.394 433.522 337.091 428.435C340.97 416.99 344.061 401.821 346.364 378.93C348.667 356.039 350.364 335.638 351.455 317.727C352.545 299.817 353.939 289.908 355.636 288C357.333 288.636 361.152 290.332 367.091 293.087C373.03 295.843 379.152 298.28 385.455 300.4C392.727 302.731 402.667 305.911 415.273 309.938C427.879 313.965 437.818 317.198 445.091 319.635C452.364 322.073 460.424 324.987 469.273 328.378C478.121 331.77 485.273 335.214 490.727 338.711C496.182 342.208 500.364 345.759 503.273 349.362C506.424 357.84 508.667 381.155 510 419.308C511.333 457.46 512 488.405 512 512.145H0C0 417.188 2.90909 362.927 8.72727 349.362C11.6364 345.759 15.8182 342.208 21.2727 338.711C26.7273 335.214 33.8788 331.77 42.7273 328.378C51.5758 324.987 59.6364 322.073 66.9091 319.635C74.1818 317.198 84.1212 313.965 96.7273 309.938C109.333 305.911 119.273 302.731 126.545 300.4C132.848 298.28 138.97 295.843 144.909 293.087C150.848 290.332 154.667 288.636 156.364 288C158.061 289.908 159.636 299.817 161.091 317.727C162.545 335.638 164.606 356.039 167.273 378.93C169.939 401.821 173.212 416.99 177.091 428.435C178.788 433.522 182.303 437.761 187.636 441.153C192.97 444.544 197.576 446.664 201.455 447.511C204.711 448.223 207.455 448.186 209.687 448.156C210.113 448.15 210.52 448.145 210.909 448.145Z" fill="black"/>
</g>
<defs>
<clipPath id="clip0">
<rect width="512" height="512" fill="white"/>
</clipPath>
</defs>
</svg>
